!!!!SEGMENT: pl-cz--iii-594b--005_rzepko-adolf--missa-benedictus.krn
!!!cenid: 18xx:1138
!!!COM: Rzepko, Adolf
!!!COM-rismid: pe30020315
!!!CDT: 1825-1892
!!!CNT: Polish
!!!OPR: Missa
!!!OTL: Benedictus
!!!OMV: 005
!!!PDT: 1873
!!!AGN: Sacred; Mass
!!!SMS-siglum: PL-CZ
!!!SMS-shelfmark: III-594b
!!!SMS-shelfwork: 001-005 M
!!!SMS-variant:
!!!SMS-altvar:
!!!NIFC-rismid: 300001137
!!!URL-scan: http://repozytorium.nifc.pl/skany/pl-cz-nut--iii-594
!!!ONB-nifc: UWAGA: części Mszy: Kyrie, Gloria, Credo, Sanctus, Benedictus, Agnus Dei. Uwaga: msza w źródle druga w kolejności, od skanu nr 0023, RISM ID 300001137.
**kern	**dynam	**kern	**dynam	**kern	**dynam	**kern	**dynam	**kern	**kern	**text	**kern	**text	**kern	**kern	**kern	**kern	**kern
*part12	*part12	*part11	*part11	*part10	*part10	*part9	*part9	*part8	*part7	*part7	*part6	*part6	*part5	*part4	*part3	*part2	*part1
*staff12	*	*staff11	*	*staff10	*	*staff9	*	*staff8	*staff7	*staff7	*staff6	*staff6	*staff5	*staff4	*staff3	*staff2	*staff1
*Iorgan	*	*Iempty	*	*Ivioln	*	*Ivioln	*	*Ibass	*Itenor	*	*Isoprn	*	*Iempty	*Iempty	*Iempty	*Iempty	*Iflt
*I"Organo	*	*I"Violino in F obligato	*	*I"Violino 2do.	*	*I"Violino 1mo	*	*I"Basso.	*I"Tenor Solo	*	*I"Sopran	*	*I"Tympano in G:	*I"Clarino in C IIdo	*I"Clarino in C: 1mo	*I"Clarinetto i C	*I"Flauto
*I'org	*	*I'vl in F	*	*I'vl II	*	*I'vl I	*	*I'B	*I'T	*	*I'S	*	*I'timp	*I'clno II	*I'clno I	*I'cl	*I'fl
*ICklav	*	*ICstr	*	*ICstr	*	*ICstr	*	*ICvox	*ICvox	*	*ICvox	*	*ICidio	*ICbras	*ICbras	*ICww	*ICww
*clefF4	*	*clefG2	*	*clefG2	*	*clefG2	*	*clefF4	*clefG2	*	*clefC1	*	*clefF4	*clefG2	*clefG2	*clefG2	*clefG2
*	*	*ITrd4c7	*	*	*	*	*	*	*	*	*	*	*	*	*	*	*
*k[f#]	*	*k[f#]	*	*k[f#]	*	*k[f#]	*	*k[f#]	*k[f#]	*	*k[f#]	*	*k[f#]	*k[f#]	*k[f#]	*k[f#]	*k[f#]
*G:	*	*G:	*	*G:	*	*G:	*	*G:	*G:	*	*G:	*	*G:	*G:	*G:	*G:	*G:
*M4/4	*	*M4/4	*	*M4/4	*	*M4/4	*	*M4/4	*M4/4	*	*M4/4	*	*M4/4	*M4/4	*M4/4	*M4/4	*M4/4
*met(c)	*	*met(c)	*	*met(c)	*	*met(c)	*	*met(c)	*met(c)	*	*met(c)	*	*met(c)	*met(c)	*met(c)	*met(c)	*met(c)
*	*	*	*	*	*	*	*below	*	*	*	*	*	*	*	*	*	*
=1	=1	=1	=1	=1	=1	=1	=1	=1	=1	=1	=1	=1	=1	=1	=1	=1	=1
*2\right	*	*	*	*	*	*	*	*	*	*	*	*	*	*	*	*	*
!LO:TX:t=P:problem=all\right&colon; global	!	!	!	!	!	!	!	!	!LO:TX:t=P:problem=partia zgodnie z RISM "zaginęła"; fragment znajduje się na karcie nr 34 [druga strona partii Clarinetto]	!	!	!	!	!	!	!	!
!LO:TX:a:rj:t=tasto Solo	!	!	!	!	!	!LO:TX:t=P:problem=all\right&colon; global	!	!	!LO:TX:a:rj:t=8	!	!	!	!	!	!	!	!
!LO:TX:a:rj:B:t=Moderato	!LO:DY:rj	!LO:TX:a:rj:B:t=Moderato	!LO:DY:rj	!LO:TX:a:rj:B:t=Moderato	!LO:DY:rj	!LO:TX:a:B:t=Moderato.	!	!LO:TX:t=P:problem=partia występuje w części "Et in carnatus."; fragment znajduje się na karcie nr 34 [druga strona partii Clarinetto]	!LO:TX:a:rj:B:t=Moderato	!	!LO:TX:t=P:problem=brak oznaczenia tempa	!	!LO:TX:t=P:problem=partia tylko w części "Agnus"	!LO:TX:a:B:t=Benedictus Tacet	!LO:TX:a:B:t=Benedictus Tacet	!LO:TX:a:B:t=Benedictus Tacet	!LO:TX:a:B:t=Benedictus Tacet.
2G\	mf	2g/ 2B/	mf	2b/ 2d/	mf	4.bb\	.	1ryy	1r	.	00r	.	1ryy	1ryy	1ryy	1ryy	1ryy
.	.	.	.	.	.	8ddd\	.	.	.	.	.	.	.	.	.	.	.
4F#\	.	4d/ 4c/	.	4a/	.	4ddd\	.	.	.	.	.	.	.	.	.	.	.
4D\	.	4c/	.	4a/ 4f#X/	.	8aa\L	.	.	.	.	.	.	.	.	.	.	.
.	.	.	.	.	.	8bb\J	.	.	.	.	.	.	.	.	.	.	.
=2	=2	=2	=2	=2	=2	=2	=2	=2	=2	=2	=2	=2	=2	=2	=2	=2	=2
*	*	*	*	*	*	*2\right	*	*	*	*	*	*	*	*	*	*	*
4D\	.	2c/	.	2a/ 2f#/	.	2aa\	.	1ryy	1r	.	.	.	1ryy	1ryy	1ryy	1ryy	1ryy
4D#X\	.	.	.	.	.	.	.	.	.	.	.	.	.	.	.	.	.
4E\	.	4e/ 4B/	.	4g/ 4G/	.	4gg\	.	.	.	.	.	.	.	.	.	.	.
4r	.	4r	.	4r	.	8.gg\L	.	.	.	.	.	.	.	.	.	.	.
.	.	.	.	.	.	16gg\Jk	.	.	.	.	.	.	.	.	.	.	.
=3	=3	=3	=3	=3	=3	=3	=3	=3	=3	=3	=3	=3	=3	=3	=3	=3	=3
2C/	.	2e/ 2c/	.	2g/ 2G/	.	4.eee\	.	1ryy	1r	.	.	.	1ryy	1ryy	1ryy	1ryy	1ryy
.	.	.	.	.	.	8eee\	.	.	.	.	.	.	.	.	.	.	.
2BB/	.	2e/ 2d/	.	2g#X/ 2B/	.	4fffn\	.	.	.	.	.	.	.	.	.	.	.
.	.	.	.	.	.	8eee\L	.	.	.	.	.	.	.	.	.	.	.
.	.	.	.	.	.	8bb\J	.	.	.	.	.	.	.	.	.	.	.
!	!	!	!	!LO:LB:g=original	!	!	!	!	!	!	!	!	!	!	!	!	!
=4	=4	=4	=4	=4	=4	=4	=4	=4	=4	=4	=4	=4	=4	=4	=4	=4	=4
2BB/	.	2e/ 2d/	.	2g#X/ 2B/	.	4.ddd\	.	1ryy	1r	.	.	.	1ryy	1ryy	1ryy	1ryy	1ryy
.	.	.	.	.	.	8ccc#X\	.	.	.	.	.	.	.	.	.	.	.
4AA/	.	4c/	.	4a/ 4e/	.	4cccn\	.	.	.	.	.	.	.	.	.	.	.
4r	.	4r	.	4r	.	8ccc\L	.	.	.	.	.	.	.	.	.	.	.
.	.	.	.	.	.	8bb\J	.	.	.	.	.	.	.	.	.	.	.
!LO:B:g=original	!	!	!	!	!	!	!	!	!	!	!	!	!	!	!	!	!
=5	=5	=5	=5	=5	=5	=5	=5	=5	=5	=5	=5	=5	=5	=5	=5	=5	=5
!	!LO:DY:rj	!	!	!	!	!	!	!	!	!	!	!	!	!	!	!	!
4C/	p	8r	.	8r	.	4.bb\	.	1ryy	1r	.	00r	.	1ryy	1ryy	1ryy	1ryy	1ryy
*	*	*tremolo	*	*tremolo	*	*	*	*	*	*	*	*	*	*	*	*	*
.	.	8d/L 8c/	.	8a/L 8f#/	.	.	.	.	.	.	.	.	.	.	.	.	.
4r	.	8d/ 8c/	.	8a/ 8f#/	.	.	.	.	.	.	.	.	.	.	.	.	.
.	.	8d/J 8c/	.	8a/J 8f#/	.	8aa\	.	.	.	.	.	.	.	.	.	.	.
4C/	.	8r	.	8r	.	8gg#X\L	.	.	.	.	.	.	.	.	.	.	.
.	.	8d/L 8c/	.	8a/L 8f#/	.	8aa\	.	.	.	.	.	.	.	.	.	.	.
4r	.	8d/ 8c/	.	8a/ 8f#/	.	8bb\	.	.	.	.	.	.	.	.	.	.	.
.	.	8d/J 8c/	.	8a/J 8f#/	.	8ccc\J	.	.	.	.	.	.	.	.	.	.	.
*	*	*Xtremolo	*	*Xtremolo	*	*	*	*	*	*	*	*	*	*	*	*	*
=6	=6	=6	=6	=6	=6	=6	=6	=6	=6	=6	=6	=6	=6	=6	=6	=6	=6
4BB/	.	8r	.	8r	.	4ddd\	.	1ryy	1r	.	.	.	1ryy	1ryy	1ryy	1ryy	1ryy
.	.	8d/	.	8g/ 8G/	.	.	.	.	.	.	.	.	.	.	.	.	.
4BB/	.	8r	.	8r	.	4ddd#X\	.	.	.	.	.	.	.	.	.	.	.
.	.	8d/	.	8fn/ 8G/	.	.	.	.	.	.	.	.	.	.	.	.	.
4C/	.	8r	.	8r	.	4eee\	.	.	.	.	.	.	.	.	.	.	.
.	.	8c/	.	8e/ 8G/	.	.	.	.	.	.	.	.	.	.	.	.	.
4C#X/	.	8r	.	8r	.	8.fff#X\L	.	.	.	.	.	.	.	.	.	.	.
.	.	8e/	.	8g/ 8B-X/	.	.	.	.	.	.	.	.	.	.	.	.	.
.	.	.	.	.	.	16ggg\Jk	.	.	.	.	.	.	.	.	.	.	.
=7	=7	=7	=7	=7	=7	=7	=7	=7	=7	=7	=7	=7	=7	=7	=7	=7	=7
4D\	.	4d/ 4B/	.	4g/ 4G/	.	4ggg\	.	1ryy	1r	.	.	.	1ryy	1ryy	1ryy	1ryy	1ryy
4r	.	4r	.	4r	.	8gg\L	.	.	.	.	.	.	.	.	.	.	.
.	.	.	.	.	.	8aa\J	.	.	.	.	.	.	.	.	.	.	.
!	!	!	!	!	!	!LO:TUP:a:problem=klamra łukowa	!	!	!	!	!	!	!	!	!	!	!
4D\	.	8d/ 8B/	.	8g/ 8G/	.	12bb\L	.	.	.	.	.	.	.	.	.	.	.
.	.	.	.	.	.	12eee\	.	.	.	.	.	.	.	.	.	.	.
.	.	8r	.	8r	.	.	.	.	.	.	.	.	.	.	.	.	.
.	.	.	.	.	.	12ddd\J	.	.	.	.	.	.	.	.	.	.	.
!	!	!	!	!	!	!LO:TUP:a:problem=klamra łukowa	!	!	!	!	!	!	!	!	!	!	!
4D\	.	8d/ 8c/	.	8f#X/ 8A/	.	12ccc\L	.	.	.	.	.	.	.	.	.	.	.
.	.	.	.	.	.	12aa\	.	.	.	.	.	.	.	.	.	.	.
.	.	8r	.	8r	.	.	.	.	.	.	.	.	.	.	.	.	.
.	.	.	.	.	.	12ddd\J	.	.	.	.	.	.	.	.	.	.	.
=8	=8	=8	=8	=8	=8	=8	=8	=8	=8	=8	=8	=8	=8	=8	=8	=8	=8
4G/ 4GG/	.	4d/ 4B/	.	4g/ 4G/	.	4gg\	.	1ryy	1r	.	.	.	1ryy	1ryy	1ryy	1ryy	1ryy
4G/ 4GG/	.	4d/ 4B/	.	4g/ 4G/	.	4b/	.	.	.	.	.	.	.	.	.	.	.
4G/ 4GG/	.	4d/ 4B/	.	4g/ 4G/	.	4g/	.	.	.	.	.	.	.	.	.	.	.
!	!	!LO:TX:t=P:problem=kreska taktowa podwójna	!	!LO:TX:t=P:problem=kreska taktowa podwójna	!	!LO:TX:t=P:problem=kreska taktowa podwójna	!	!	!	!	!	!	!	!	!	!	!
!	!	!LO:TX:b:t=Fine	!	!LO:TX:b:t=Fine	!	!LO:TX:b:t=Tine	!	!	!	!	!	!	!	!	!	!	!
4r	.	4r	.	4r	.	4r	.	.	.	.	.	.	.	.	.	.	.
!	!	!	!	!	!	!LO:LB:g=original	!	!	!	!	!	!	!	!	!	!	!
=9	=9	=9||	=9||	=9||	=9||	=9||	=9||	=9||	=9||	=9||	=9||	=9||	=9||	=9||	=9||	=9||	=9||
!	!	!	!	!	!	!	!	!	!	!	!LO:TX:t=P:problem=zgodnie z RISM "partia T zaginęła"	!	!	!	!	!	!
!	!	!	!	!	!	!	!	!	!	!	!LO:TX:b:t=Tenor Solo.	!	!	!	!	!	!
!	!	!	!	!	!LO:DY:rj	!	!	!	!LO:TX:t=P:problem=all\right&colon; global	!	!LO:TX:a:rj:t=12	!	!	!	!	!	!
2G\	.	2g/ 2B/	.	2d/	p	2b/	p	1ryy	4.b\	Be-	1r	.	1ryy	1ryy	1ryy	1ryy	1ryy
.	.	.	.	.	.	.	.	.	8b\	-ne-	.	.	.	.	.	.	.
4F#\	.	4d/ 4c/	.	4d/	.	4a/	.	.	4dd\	-di-	.	.	.	.	.	.	.
4D\	.	4c/	.	4f#/	.	4a/	.	.	8a\	-ctus	.	.	.	.	.	.	.
.	.	.	.	.	.	.	.	.	8b\	qui	.	.	.	.	.	.	.
=10	=10	=10	=10	=10	=10	=10	=10	=10	=10	=10	=10	=10	=10	=10	=10	=10	=10
4D\	.	2c/	.	2f#/	.	2a/	.	1ryy	2a/	ve-	1r	.	1ryy	1ryy	1ryy	1ryy	1ryy
4D#X\	.	.	.	.	.	.	.	.	.	.	.	.	.	.	.	.	.
4E\	.	4e/ 4B/	.	4g/ 4G/	.	4g/	.	.	4g/	-nit	.	.	.	.	.	.	.
4r	.	4r	.	4r	.	4r	.	.	8r	.	.	.	.	.	.	.	.
.	.	.	.	.	.	.	.	.	8g/	qui	.	.	.	.	.	.	.
=11	=11	=11	=11	=11	=11	=11	=11	=11	=11	=11	=11	=11	=11	=11	=11	=11	=11
4C/	.	2e/ 2c/	.	2G/	.	2g/	.	1ryy	4ee\	ve-	1r	.	1ryy	1ryy	1ryy	1ryy	1ryy
4r	.	.	.	.	.	.	.	.	8ee\	-nit	.	.	.	.	.	.	.
*	*	*	*	*	*	*	*	*	*custos:ff	*	*	*	*	*	*	*	*
.	.	.	.	.	.	.	.	.	8ee\	in	.	.	.	.	.	.	.
*	*	*	*	*	*	*	*	*	*custos:ff	*	*	*	*	*	*	*	*
4BB/	.	2d/ 2c/	.	2B/	.	2g#X/	.	.	4ffn\	no-	.	.	.	.	.	.	.
4r	.	.	.	.	.	.	.	.	8ee\	-mi-	.	.	.	.	.	.	.
.	.	.	.	.	.	.	.	.	8b\	-ne	.	.	.	.	.	.	.
=12	=12	=12	=12	=12	=12	=12	=12	=12	=12	=12	=12	=12	=12	=12	=12	=12	=12
2BB/	.	2e/ 2d/	.	2B/	.	2g#X/	.	1ryy	4.dd\	Do-	1r	.	1ryy	1ryy	1ryy	1ryy	1ryy
.	.	.	.	.	.	.	.	.	8cc#X\	-mi-	.	.	.	.	.	.	.
4AA/	.	4c/	.	4e/	.	4a/	.	.	4ccn\	-ni	.	.	.	.	.	.	.
4r	.	4r	.	4r	.	4r	.	.	(8cc\L	in	.	.	.	.	.	.	.
.	.	.	.	.	.	.	.	.	8b\J)	.	.	.	.	.	.	.	.
!	!	!LO:LB:g=original	!	!	!	!	!	!	!	!	!	!	!	!	!	!	!
=13	=13	=13	=13	=13	=13	=13	=13	=13	=13	=13	=13	=13	=13	=13	=13	=13	=13
4C/	.	8r	.	8r	.	8r	.	1ryy	(4.b\	no-	1r	.	1ryy	1ryy	1ryy	1ryy	1ryy
*	*	*tremolo	*	*tremolo	*	*tremolo	*	*	*	*	*	*	*	*	*	*	*
.	.	8d/L 8c/	.	8a/L 8f#/	.	8a/L 8f#/	.	.	.	.	.	.	.	.	.	.	.
4r	.	8d/ 8c/	.	8a/ 8f#/	.	8a/ 8f#/	.	.	.	.	.	.	.	.	.	.	.
.	.	8d/J 8c/	.	8a/J 8f#/	.	8a/J 8f#/	.	.	8a\)	.	.	.	.	.	.	.	.
4C/	.	8r	.	8r	.	8r	.	.	(8g#X/L	-mi-	.	.	.	.	.	.	.
.	.	8d/L 8c/	.	8a/L 8f#/	.	8a/L 8f#/	.	.	8a/J)	.	.	.	.	.	.	.	.
4r	.	8d/ 8c/	.	8a/ 8f#/	.	8a/ 8f#/	.	.	(8b\L	-ne	.	.	.	.	.	.	.
.	.	8d/J 8c/	.	8a/J 8f#/	.	8a/J 8f#/	.	.	8cc\J)	.	.	.	.	.	.	.	.
=14	=14	=14	=14	=14	=14	=14	=14	=14	=14	=14	=14	=14	=14	=14	=14	=14	=14
4BB/	.	8r	.	8r	.	8r	.	1ryy	([4cc#X\	Do-	1r	.	1ryy	1ryy	1ryy	1ryy	1ryy
.	.	8G/L	.	8d/L	.	8g/L	.	.	.	.	.	.	.	.	.	.	.
4r	.	8G/	.	8d/	.	8g/	.	.	16cc#\LL]	.	.	.	.	.	.	.	.
.	.	.	.	.	.	.	.	.	16ee\JJ)	.	.	.	.	.	.	.	.
.	.	8G/J	.	8d/J	.	8g/J	.	.	(16dd\LL	-mi-	.	.	.	.	.	.	.
.	.	.	.	.	.	.	.	.	16b\JJ)	.	.	.	.	.	.	.	.
4BB/	.	8r	.	8r	.	8r	.	.	4g/	-ni	.	.	.	.	.	.	.
.	.	8G/L	.	8d/L	.	8g/L	.	.	.	.	.	.	.	.	.	.	.
!	!	!	!	!	!	!	!	!	!LO:TX:a:rj:t=SIC&colon;s=8.ccn	!	!	!	!	!	!	!	!
4r	.	8G/	.	8d/	.	8g/	.	.	(8.cc#\L	in	.	.	.	.	.	.	.
.	.	8G/J	.	8d/J	.	8g/J	.	.	.	.	.	.	.	.	.	.	.
.	.	.	.	.	.	.	.	.	16b\Jk)	.	.	.	.	.	.	.	.
!	!	!	!	!LO:LB:g=original	!	!	!	!	!	!	!	!	!	!	!	!	!
=15	=15	=15	=15	=15	=15	=15	=15	=15	=15	=15	=15	=15	=15	=15	=15	=15	=15
4C/	.	8r	.	8r	.	8r	.	1ryy	4.b\	no-	1r	.	1ryy	1ryy	1ryy	1ryy	1ryy
.	.	8d/L 8c/	.	8a/L 8f#/	.	8a/L 8f#/	.	.	.	.	.	.	.	.	.	.	.
4r	.	8d/ 8c/	.	8a/ 8f#/	.	8a/ 8f#/	.	.	.	.	.	.	.	.	.	.	.
.	.	8d/J 8c/	.	8a/J 8f#/	.	8a/J 8f#/	.	.	8a\	-mi-	.	.	.	.	.	.	.
4C/	.	8r	.	8r	.	8r	.	.	(8g#X\L	.	.	.	.	.	.	.	.
.	.	8d/L 8c/	.	8a/L 8f#/	.	8a/L 8f#/	.	.	8a\J)	.	.	.	.	.	.	.	.
4r	.	8d/ 8c/	.	8a/ 8f#/	.	8a/ 8f#/	.	.	(8b\L	-ne	.	.	.	.	.	.	.
.	.	8d/J 8c/	.	8a/J 8f#/	.	8a/J 8f#/	.	.	8cc\J)	.	.	.	.	.	.	.	.
=16	=16	=16	=16	=16	=16	=16	=16	=16	=16	=16	=16	=16	=16	=16	=16	=16	=16
4BB/	.	8r	.	8r	.	8r	.	1ryy	([4cc#X\	Do-	1r	.	1ryy	1ryy	1ryy	1ryy	1ryy
.	.	8G/L	.	8d/L	.	8g/L	.	.	.	.	.	.	.	.	.	.	.
4r	.	8G/	.	8d/	.	8g/	.	.	16cc#\LL]	.	.	.	.	.	.	.	.
.	.	.	.	.	.	.	.	.	16ee\JJ)	.	.	.	.	.	.	.	.
.	.	8G/J	.	8d/J	.	8g/J	.	.	(16dd\LL	-mi-	.	.	.	.	.	.	.
.	.	.	.	.	.	.	.	.	16b\JJ)	.	.	.	.	.	.	.	.
4BB/	.	8r	.	8r	.	8r	.	.	4g/	-ni	.	.	.	.	.	.	.
.	.	8G/L	.	8d/L	.	8g/L	.	.	.	.	.	.	.	.	.	.	.
4r	.	8G/	.	8d/	.	8g/	.	.	4r	.	.	.	.	.	.	.	.
.	.	8G/J	.	8d/J	.	8g/J	.	.	.	.	.	.	.	.	.	.	.
=17	=17	=17	=17	=17	=17	=17	=17	=17	=17	=17	=17	=17	=17	=17	=17	=17	=17
*rep	*	*	*	*	*	*	*	*	*	*	*	*	*	*	*	*	*
4BB/	.	8r	.	8r	.	8r	.	1ryy	2dd\	Be-	1r	.	1ryy	1ryy	1ryy	1ryy	1ryy
.	.	8d/L	.	8g/L 8G/	.	8g/L	.	.	.	.	.	.	.	.	.	.	.
4r	.	8d/	.	8g/ 8G/	.	8g/	.	.	.	.	.	.	.	.	.	.	.
.	.	8d/J	.	8g/J 8G/	.	8g/J	.	.	.	.	.	.	.	.	.	.	.
4BB/	.	8r	.	8r	.	8r	.	.	2dd#X\	-ne-	.	.	.	.	.	.	.
.	.	8d/L	.	8fn/L 8G/	.	8fn/L	.	.	.	.	.	.	.	.	.	.	.
4r	.	8d/	.	8f/ 8G/	.	8f/	.	.	.	.	.	.	.	.	.	.	.
.	.	8d/J	.	8f/J 8G/	.	8f/J	.	.	.	.	.	.	.	.	.	.	.
*Xrep	*	*	*	*	*	*	*	*	*	*	*	*	*	*	*	*	*
!LO:LB:g=original	!	!	!	!	!	!	!	!	!	!	!	!	!	!	!	!	!
=18	=18	=18	=18	=18	=18	=18	=18	=18	=18	=18	=18	=18	=18	=18	=18	=18	=18
4C/	.	8r	.	8r	.	8r	.	1ryy	2ee\	-di-	1r	.	1ryy	1ryy	1ryy	1ryy	1ryy
.	.	8c/L	.	8e/L 8G/	.	8e/L	.	.	.	.	.	.	.	.	.	.	.
4r	.	8c/	.	8e/ 8G/	.	8e/	.	.	.	.	.	.	.	.	.	.	.
.	.	8c/J	.	8e/J 8G/	.	8e/J	.	.	.	.	.	.	.	.	.	.	.
4C#X/	.	8r	.	8r	.	8r	.	.	4ee\	-ctus	.	.	.	.	.	.	.
.	.	8e/L	.	8g/L 8B-X/	.	8g/L	.	.	.	.	.	.	.	.	.	.	.
4r	.	8e/	.	8g/ 8B-/	.	8g/	.	.	(8ff#X\L	qui	.	.	.	.	.	.	.
.	.	8e/J	.	8g/J 8B-/	.	8g/J	.	.	8gg\J)	.	.	.	.	.	.	.	.
*	*	*Xtremolo	*	*Xtremolo	*	*Xtremolo	*	*	*	*	*	*	*	*	*	*	*
=19	=19	=19	=19	=19	=19	=19	=19	=19	=19	=19	=19	=19	=19	=19	=19	=19	=19
4D\	.	4d/ 4B/	.	4g/ 4G/	.	4g/	.	1ryy	4gg\	ve-	1r	.	1ryy	1ryy	1ryy	1ryy	1ryy
4r	.	4r	.	4r	.	4r	.	.	8g/	-nit	.	.	.	.	.	.	.
.	.	.	.	.	.	.	.	.	8a/	in	.	.	.	.	.	.	.
!	!	!	!	!	!	!	!	!	!LO:TUP:a:problem=klamra łukowa	!	!	!	!	!	!	!	!
4D\	.	8d/ 8B/	.	8g/ 8G/	.	8g/	.	.	12b/	no-	.	.	.	.	.	.	.
.	.	.	.	.	.	.	.	.	12ee\	-mi-	.	.	.	.	.	.	.
.	.	8r	.	8r	.	8r	.	.	.	.	.	.	.	.	.	.	.
.	.	.	.	.	.	.	.	.	12dd/	-ne	.	.	.	.	.	.	.
4D\	.	8d/ 8c/	.	8f#X/ 8A/	.	8f#X/	.	.	12cc/	Do-	.	.	.	.	.	.	.
.	.	.	.	.	.	.	.	.	12a/	.	.	.	.	.	.	.	.
.	.	8r	.	8r	.	8r	.	.	.	.	.	.	.	.	.	.	.
.	.	.	.	.	.	.	.	.	12dd/	-mi-	.	.	.	.	.	.	.
=20	=20	=20	=20	=20	=20	=20	=20	=20	=20	=20	=20	=20	=20	=20	=20	=20	=20
!	!	!	!	!	!	!	!	!	!	!	!LO:TX:t=P:problem=kreska taktowa podwójna	!	!	!	!	!	!
4GG/	.	4d/ 4B/	.	4d/	.	4g/ 4G/	.	1ryy	4g/	-ni	1r	.	1ryy	1ryy	1ryy	1ryy	1ryy
4G/ 4GG/	.	4d/ 4B/	.	4G/	.	4b/ 4d/	.	.	4r	.	.	.	.	.	.	.	.
4G/ 4GG/	.	4d/ 4B/	.	4d/	.	4g/ 4G/	.	.	2r	.	.	.	.	.	.	.	.
4r	.	4r	.	4r	.	4r	.	.	.	.	.	.	.	.	.	.	.
!	!	!	!	!	!	!LO:LB:g=original	!	!	!	!	!	!	!	!	!	!	!
=21	=21	=21	=21	=21	=21	=21	=21	=21	=21	=21	=21||	=21	=21	=21	=21	=21	=21
*	*	*	*	*	*	*	*	*	*	*	*2\right	*	*	*	*	*	*
!	!	!	!	!	!	!	!	!	!	!	!LO:TX:t=P:problem=all\right&colon; global	!	!	!	!	!	!
!	!	!	!	!	!	!	!	!	!LO:TX:a:rj:t=8	!	!LO:TX:a:rj:t=Solo	!	!	!	!	!	!
4D/	.	8r	.	8r	.	8r	.	1ryy	1r	.	(2a\	Be-	1ryy	1ryy	1ryy	1ryy	1ryy
*	*	*tremolo	*	*tremolo	*	*tremolo	*	*	*	*	*	*	*	*	*	*	*
.	.	8A/L	.	8d/L	.	8f#/L	.	.	.	.	.	.	.	.	.	.	.
4r	.	8A/	.	8d/	.	8f#/	.	.	.	.	.	.	.	.	.	.	.
.	.	8A/J	.	8d/J	.	8f#/J	.	.	.	.	.	.	.	.	.	.	.
4D/	.	8r	.	8r	.	8r	.	.	.	.	8g#X\L	.	.	.	.	.	.
.	.	8A/L	.	8d/L	.	8g/L	.	.	.	.	8a\J)	.	.	.	.	.	.
4r	.	8A/	.	8d/	.	8g/	.	.	.	.	(8dd\L	-ne-	.	.	.	.	.
.	.	8A/J	.	8d/J	.	8g/J	.	.	.	.	8ff#\J)	.	.	.	.	.	.
=22	=22	=22	=22	=22	=22	=22	=22	=22	=22	=22	=22	=22	=22	=22	=22	=22	=22
*	*	*rep	*	*	*	*	*	*	*	*	*	*	*	*	*	*	*
2E\	.	8r	.	8r	.	8r	.	1ryy	1r	.	(4.ff#\	-dic-	1ryy	1ryy	1ryy	1ryy	1ryy
.	.	8A/L	.	8c#X/L	.	8g/L	.	.	.	.	.	.	.	.	.	.	.
.	.	8A/	.	8c#/	.	8g/	.	.	.	.	.	.	.	.	.	.	.
.	.	8A/J	.	8c#/J	.	8g/J	.	.	.	.	16gg\LL	.	.	.	.	.	.
.	.	.	.	.	.	.	.	.	.	.	16dd#X\JJ	.	.	.	.	.	.
2AA/	.	8r	.	8r	.	8r	.	.	.	.	4ee\)	-tus	.	.	.	.	.
.	.	8A/L	.	8c#/L	.	8g/L	.	.	.	.	.	.	.	.	.	.	.
.	.	8A/	.	8c#/	.	8g/	.	.	.	.	4a\	qui	.	.	.	.	.
.	.	8A/J	.	8c#/J	.	8g/J	.	.	.	.	.	.	.	.	.	.	.
*	*	*Xrep	*	*	*	*	*	*	*	*	*	*	*	*	*	*	*
=23	=23	=23	=23	=23	=23	=23	=23	=23	=23	=23	=23	=23	=23	=23	=23	=23	=23
*	*	*rep	*	*	*	*rep	*	*	*	*	*	*	*	*	*	*	*
4C#X/	.	8r	.	8r	.	8r	.	1ryy	1r	.	2a\	ve-	1ryy	1ryy	1ryy	1ryy	1ryy
.	.	8A/L	.	8e/L	.	8g/L	.	.	.	.	.	.	.	.	.	.	.
4r	.	8A/	.	8e/	.	8g/	.	.	.	.	.	.	.	.	.	.	.
.	.	8A/J	.	8e/J	.	8g/J	.	.	.	.	.	.	.	.	.	.	.
4AA/	.	8r	.	8r	.	8r	.	.	.	.	(8g#X\L	-nit	.	.	.	.	.
.	.	8A/L	.	8c#X/L	.	8g/L	.	.	.	.	8a\J)	.	.	.	.	.	.
4r	.	8A/	.	8c#/	.	8g/	.	.	.	.	(8cc#X\L	qui	.	.	.	.	.
.	.	8A/J	.	8c#/J	.	8g/J	.	.	.	.	8ee\J)	.	.	.	.	.	.
*	*	*Xrep	*	*	*	*Xrep	*	*	*	*	*	*	*	*	*	*	*
=24	=24	=24	=24	=24	=24	=24	=24	=24	=24	=24	=24	=24	=24	=24	=24	=24	=24
*	*	*rep	*	*	*	*	*	*	*	*	*	*	*	*	*	*	*
4D\	.	8r	.	8r	.	8r	.	1ryy	1r	.	(4.ee#X\	ve-	1ryy	1ryy	1ryy	1ryy	1ryy
.	.	8A/L	.	8d/L	.	8f#/L	.	.	.	.	.	.	.	.	.	.	.
4r	.	8A/	.	8d/	.	8f#/	.	.	.	.	.	.	.	.	.	.	.
.	.	8A/J	.	8d/J	.	8f#/J	.	.	.	.	16ff#\LL	.	.	.	.	.	.
.	.	.	.	.	.	.	.	.	.	.	16cc#X\JJ)	.	.	.	.	.	.
!	!	!	!	!	!	!	!	!	!	!	!LO:LB:g=original	!	!	!	!	!	!
4D\	.	8r	.	8r	.	8r	.	.	.	.	4dd\	-nit	.	.	.	.	.
.	.	8A/L	.	8d/L	.	8f#/L	.	.	.	.	.	.	.	.	.	.	.
4r	.	8A/	.	8d/	.	8f#/	.	.	.	.	8r	.	.	.	.	.	.
.	.	8A/J	.	8d/J	.	8f#/J	.	.	.	.	8dd\	in	.	.	.	.	.
*	*	*Xrep	*	*	*	*	*	*	*	*	*	*	*	*	*	*	*
=25	=25	=25	=25	=25	=25	=25	=25	=25	=25	=25	=25	=25	=25	=25	=25	=25	=25
2F#\	.	8r	.	8r	.	8r	.	1ryy	1r	.	2aa\	no-	1ryy	1ryy	1ryy	1ryy	1ryy
.	.	8A/L	.	8d/L	.	8a/L	.	.	.	.	.	.	.	.	.	.	.
.	.	8A/	.	8d/	.	8a/	.	.	.	.	.	.	.	.	.	.	.
.	.	8A/J	.	8d/J	.	8a/J	.	.	.	.	.	.	.	.	.	.	.
2BB/	.	8r	.	8r	.	8r	.	.	.	.	(8gg\L	-mi-	.	.	.	.	.
.	.	8B/L	.	8d#X/L	.	8a/L 8f#/	.	.	.	.	8ff#\J)	.	.	.	.	.	.
.	.	8B/	.	8d#/	.	8a/ 8f#/	.	.	.	.	(8ee\L	-ne	.	.	.	.	.
.	.	8B/J	.	8d#/J	.	8a/J 8f#/	.	.	.	.	8dd#X\J)	.	.	.	.	.	.
!	!	!	!	!LO:LB:g=original	!	!	!	!	!	!	!	!	!	!	!	!	!
=26	=26	=26	=26	=26	=26	=26	=26	=26	=26	=26	=26	=26	=26	=26	=26	=26	=26
2E\	.	8r	.	8r	.	8r	.	1ryy	1r	.	8.ff#\	Do-	1ryy	1ryy	1ryy	1ryy	1ryy
.	.	8B/L	.	8e/L	.	8g/L	.	.	.	.	.	.	.	.	.	.	.
.	.	.	.	.	.	.	.	.	.	.	16ee\	-mi-	.	.	.	.	.
.	.	8B/	.	8e/	.	8g/	.	.	.	.	4ee\	-ni	.	.	.	.	.
.	.	8B/J	.	8e/J	.	8g/J	.	.	.	.	.	.	.	.	.	.	.
2GG/	.	8r	.	8r	.	8r	.	.	.	.	4r	.	.	.	.	.	.
.	.	8B-/L	.	8e/L	.	8g/L	.	.	.	.	.	.	.	.	.	.	.
.	.	8B-/	.	8e/	.	8g/	.	.	.	.	(8gg\L	in	.	.	.	.	.
.	.	8B-/J	.	8e/J	.	8g/J	.	.	.	.	8b-X\J)	.	.	.	.	.	.
!	!	!LO:LB:g=original	!	!	!	!	!	!	!	!	!	!	!	!	!	!	!
=27	=27	=27	=27	=27	=27	=27	=27	=27	=27	=27	=27	=27	=27	=27	=27	=27	=27
4AA/	.	8r	.	8r	.	8r	.	1ryy	1r	.	(8a\L	no-	1ryy	1ryy	1ryy	1ryy	1ryy
.	.	8A/L	.	8d/L	.	8f#/L	.	.	.	.	16b\L	.	.	.	.	.	.
.	.	.	.	.	.	.	.	.	.	.	16a\JJ)	.	.	.	.	.	.
4r	.	8A/	.	8d/	.	8f#/	.	.	.	.	8g#X\	-mi-	.	.	.	.	.
.	.	8A/J	.	8d/J	.	8f#/J	.	.	.	.	8a\	-ne	.	.	.	.	.
4AA/	.	8r	.	8r	.	8r	.	.	.	.	4.ff#\	Do-	.	.	.	.	.
.	.	8A/L	.	8c#X/L	.	8g/L	.	.	.	.	.	.	.	.	.	.	.
4r	.	8A/	.	8c#/	.	8g/	.	.	.	.	.	.	.	.	.	.	.
.	.	8A/J	.	8c#/J	.	8g/J	.	.	.	.	8ee\	-mi-	.	.	.	.	.
*	*	*Xtremolo	*	*Xtremolo	*	*Xtremolo	*	*	*	*	*	*	*	*	*	*	*
=28	=28	=28	=28	=28	=28	=28	=28	=28	=28	=28	=28	=28	=28	=28	=28	=28	=28
!LO:TX:a:rj:t=uniso&colon;	!	!	!	!	!	!	!	!	!	!	!	!	!	!	!	!	!
4D\	.	4A/	.	4d/	.	4f#/	.	1ryy	1r	.	4dd\	-ni	1ryy	1ryy	1ryy	1ryy	1ryy
!	!	!	!	!LO:TX:t=P:problem=all\right&colon; global	!	!	!LO:DY:rj	!	!	!	!	!	!	!	!	!	!
8D/L	.	8d/L	.	8dd\L	.	8ddd\L	f	.	.	.	4r	.	.	.	.	.	.
8E/J	.	8e/J	.	8ee\J	.	8eee\J	.	.	.	.	.	.	.	.	.	.	.
8D/L	.	8d/L	.	8dd\L	.	8ddd\L	.	.	.	.	2r	.	.	.	.	.	.
8C/	.	8c/	.	8cc\	.	8ccc\	.	.	.	.	.	.	.	.	.	.	.
8BB/	.	8B/	.	8b\	.	8bb\	.	.	.	.	.	.	.	.	.	.	.
!	!	!LO:TX:t=P:problem=kreska taktowa podwójna	!	!LO:TX:t=P:problem=kreska taktowa podwójna	!	!LO:TX:t=P:problem=kreska taktowa podwójna	!	!	!	!	!	!	!	!	!	!	!
8AA/J	.	8A/J	.	8a\J	.	8aa\J	.	.	.	.	.	.	.	.	.	.	.
=29	=29	=29	=29	=29	=29	=29	=29	=29	=29	=29	=29	=29	=29	=29	=29	=29	=29
!LO:TX:a:rj:t=lasto Solo	!	!LO:TX:a:rj:t=D&colon;C&colon; al Fine	!	!LO:TX:a:rj:t=D&colon;C. al Tine	!	!LO:TX:a:rj:t=D&colon;C&colon; al Fine	!	!	!	!	!	!	!	!	!	!	!
4GG/	.	2g/yy 2B/yy	mf	2b/yy 2d/yy	mfyy	4.bb\yy	.	1ryy	4.b\	O-	(4.b\	O-	1ryy	1ryy	1ryy	1ryy	1ryy
4G\	.	.	.	.	.	.	.	.	.	.	.	.	.	.	.	.	.
.	.	.	.	.	.	8ddd\yy	.	.	8cc\	.	8dd\)	.	.	.	.	.	.
4F#\	.	4d/yy 4c/yy	.	4a/yy	.	4ddd\yy	.	.	4dd\	-san-	4dd\	-san-	.	.	.	.	.
4D\	.	[yy4c/yy	.	4a/yy 4f#X/yy	.	8aa\Lyy	.	.	8a\	-na	8a\	-na	.	.	.	.	.
.	.	.	.	.	.	8bb\Jyy	.	.	8b\	O-	8b\	O-	.	.	.	.	.
!LO:LB:g=original	!	!	!	!	!	!	!	!	!	!	!	!	!	!	!	!	!
=30	=30	=30	=30	=30	=30	=30	=30	=30	=30	=30	=30	=30	=30	=30	=30	=30	=30
4D\	.	2c/]yy	.	2a/yy 2f#/yy	.	2aa\yy	.	1ryy	2a/	-san-	2a\	-san-	1ryy	1ryy	1ryy	1ryy	1ryy
4D#X\	.	.	.	.	.	.	.	.	.	.	.	.	.	.	.	.	.
4E\	.	4e/yy 4B/yy	.	4g/yy 4G/yy	.	4gg\yy	.	.	4g/	-na	4g\	-na	.	.	.	.	.
4r	.	4ryy	.	4ryy	.	8.gg\Lyy	.	.	8.g/	in	8.g\	in	.	.	.	.	.
.	.	.	.	.	.	16gg\Jkyy	.	.	16g/	ex-	16g\	ex-	.	.	.	.	.
=31	=31	=31	=31	=31	=31	=31	=31	=31	=31	=31	=31	=31	=31	=31	=31	=31	=31
2C/	.	2e/yy 2c/yy	.	2g/yy 2G/yy	.	4.eee\yy	.	1ryy	4.ee\	-cel-	4.ee\	-cel-	1ryy	1ryy	1ryy	1ryy	1ryy
.	.	.	.	.	.	8eee\yy	.	.	8ee\	-sis	8ee\	-sis	.	.	.	.	.
2BB/	.	2e/yy 2d/yy	.	2g#X/yy 2B/yy	.	4fffn\yy	.	.	4ffn\	in	4ffn\	in	.	.	.	.	.
.	.	.	.	.	.	8eee\Lyy	.	.	(8ee\L	ex-	(8ee\L	ex-	.	.	.	.	.
.	.	.	.	.	.	8bb\Jyy	.	.	8b\J)	.	8b\J)	.	.	.	.	.	.
=32	=32	=32	=32	=32	=32	=32	=32	=32	=32	=32	=32	=32	=32	=32	=32	=32	=32
2BB/	.	2e/yy 2d/yy	.	2g#X/yy 2B/yy	.	4.ddd\yy	.	1ryy	(4.dd\	-cel-	(4.dd\	-cel-	1ryy	1ryy	1ryy	1ryy	1ryy
*	*	*	*	*	*	*	*	*	*	*	*custos:dd	*	*	*	*	*	*
.	.	.	.	.	.	8ccc#X\yy	.	.	8cc#X\)	.	8cc#X\)	.	.	.	.	.	.
*	*	*	*	*	*	*	*	*	*	*	*custos:ee	*	*	*	*	*	*
!	!	!	!	!	!	!	!	!	!	!	!LO:LB:g=original	!	!	!	!	!	!
4AA/	.	4c/yy	.	4a/yy 4e/yy	.	4cccn\yy	.	.	4ccn\	-sis	4ccn\	-sis	.	.	.	.	.
4r	.	4ryy	.	4ryy	.	8ccc\Lyy	.	.	(8cc\L	O-	(8cc\L	O-	.	.	.	.	.
.	.	.	.	.	.	8bb\Jyy	.	.	8b\J)	.	8b\J)	.	.	.	.	.	.
=33	=33	=33	=33	=33	=33	=33	=33	=33	=33	=33	=33	=33	=33	=33	=33	=33	=33
4C/	.	8ryy	.	8ryy	.	4.bb\yy	.	1ryy	4.b\	-san-	4.b\	-san-	1ryy	1ryy	1ryy	1ryy	1ryy
*	*	*tremolo	*	*tremolo	*	*	*	*	*	*	*	*	*	*	*	*	*
.	.	8d/yyL 8c/yy	.	8a/yyL 8f#/yy	.	.	.	.	.	.	.	.	.	.	.	.	.
4r	.	8d/yy 8c/yy	.	8a/yy 8f#/yy	.	.	.	.	.	.	.	.	.	.	.	.	.
.	.	8d/yyJ 8c/yy	.	8a/yyJ 8f#/yy	.	8aa\yy	.	.	8a\	-na	8a\	-na	.	.	.	.	.
4C/	.	8ryy	.	8ryy	.	8gg#X\Lyy	.	.	(8g#X\L	in	(8g#X\L	in	.	.	.	.	.
.	.	8d/yyL 8c/yy	.	8a/yyL 8f#/yy	.	8aa\yy	.	.	8a\J)	.	8a\J)	.	.	.	.	.	.
4r	.	8d/yy 8c/yy	.	8a/yy 8f#/yy	.	8bb\yy	.	.	(8b\L	ex-	(8b\L	ex-	.	.	.	.	.
.	.	8d/yyJ 8c/yy	.	8a/yyJ 8f#/yy	.	8ccc\Jyy	.	.	8cc\J)	.	8cc\J)	.	.	.	.	.	.
*	*	*Xtremolo	*	*Xtremolo	*	*	*	*	*	*	*	*	*	*	*	*	*
=34	=34	=34	=34	=34	=34	=34	=34	=34	=34	=34	=34	=34	=34	=34	=34	=34	=34
4BB/	.	8ryy	.	8ryy	.	4ddd\yy	.	1ryy	(4dd\	-cel-	(4dd\	-cel-	1ryy	1ryy	1ryy	1ryy	1ryy
.	.	8d/yy	.	8g/yy 8G/yy	.	.	.	.	.	.	.	.	.	.	.	.	.
4BB/	.	8ryy	.	8ryy	.	4ddd#X\yy	.	.	4dd#X\)	.	4dd#X\)	.	.	.	.	.	.
.	.	8d/yy	.	8fn/yy 8G/yy	.	.	.	.	.	.	.	.	.	.	.	.	.
4C/	.	8ryy	.	8ryy	.	4eee\yy	.	.	4ee\	-sis	4ee\	-sis	.	.	.	.	.
.	.	8c/yy	.	8e/yy 8G/yy	.	.	.	.	.	.	.	.	.	.	.	.	.
4C#X/	.	8ryy	.	8ryy	.	8.fff#X\Lyy	.	.	8ff#X\L	O-	(8ff#X\L	O-	.	.	.	.	.
.	.	8e/yy	.	8g/yy 8B-X/yy	.	.	.	.	8gg\J	.	8gg\J)	.	.	.	.	.	.
.	.	.	.	.	.	16ggg\Jkyy	.	.	.	.	.	.	.	.	.	.	.
=35	=35	=35	=35	=35	=35	=35	=35	=35	=35	=35	=35	=35	=35	=35	=35	=35	=35
4D\	.	4d/yy 4B/yy	.	4g/yy 4G/yy	.	4ggg\yy	.	1ryy	4gg\	-san-	4gg\	-san-	1ryy	1ryy	1ryy	1ryy	1ryy
4r	.	4ryy	.	4ryy	.	8gg\Lyy	.	.	(8g/L	-na	(8g\L	-na	.	.	.	.	.
.	.	.	.	.	.	8aa\Jyy	.	.	8a/J)	.	8a\J)	.	.	.	.	.	.
!	!	!	!	!	!	!LO:TUP:a:problem=klamra łukowa	!	!	!LO:TUP:a:problem=klamra łukowa	!	!LO:TUP:a:problem=klamra łukowa	!	!	!	!	!	!
4D\	.	8d/yy 8B/yy	.	8g/yy 8G/yy	.	12bb\Lyy	.	.	12b\L	in	12b\L	in	.	.	.	.	.
.	.	.	.	.	.	12eee\yy	.	.	12ee\J	.	12ee\J	.	.	.	.	.	.
.	.	8ryy	.	8ryy	.	.	.	.	.	.	.	.	.	.	.	.	.
.	.	.	.	.	.	12ddd\Jyy	.	.	12dd\	ex-	12dd\	ex-	.	.	.	.	.
!	!	!	!	!	!	!LO:TUP:a:problem=klamra łukowa	!	!	!LO:TUP:a:problem=klamra łukowa	!	!LO:TUP:a:problem=klamra łukowa	!	!	!	!	!	!
4D\	.	8d/yy 8c/yy	.	8f#X/yy 8A/yy	.	12ccc\Lyy	.	.	12cc\L	-cel-	12cc\L	-cel-	.	.	.	.	.
.	.	.	.	.	.	12aa\yy	.	.	12a\	.	12a\	.	.	.	.	.	.
.	.	8ryy	.	8ryy	.	.	.	.	.	.	.	.	.	.	.	.	.
.	.	.	.	.	.	12ddd\Jyy	.	.	12dd\J	.	12dd\J	.	.	.	.	.	.
=36	=36	=36	=36	=36	=36	=36	=36	=36	=36	=36	=36	=36	=36	=36	=36	=36	=36
4GG/	.	4d/yy 4B/yy	.	4g/yy 4G/yy	.	4gg\yy	.	1ryy	4g/	-sis	4g/	-sis	1ryy	1ryy	1ryy	1ryy	1ryy
4G/ 4GG/	.	4d/yy 4B/yy	.	4g/yy 4G/yy	.	4b/yy	.	.	4r	.	4r	.	.	.	.	.	.
4G/ 4GG/	.	4d/yy 4B/yy	.	4g/yy 4G/yy	.	4g/yy	.	.	2r	.	2r	.	.	.	.	.	.
!	!	!LO:TX:b:t=Fine	!	!LO:TX:b:t=Fine	!	!LO:TX:b:t=Fine	!	!	!	!	!	!	!	!	!	!	!
4r	.	4ryy	.	4ryy	.	4ryy	.	.	.	.	.	.	.	.	.	.	.
==	==	==	==	==	==	==	==	==	==	==	==	==	==	==	==	==	==
*-	*-	*-	*-	*-	*-	*-	*-	*-	*-	*-	*-	*-	*-	*-	*-	*-	*-
!!!system-decoration: [(s1,s2)][(s3,s4)][(s5)][(s6,s7,s8)][(s9,s10,s11)][(s12)]
!!!ENC: Andrzej Kubiczek
!!!END: 2020-10-24
!!!AIN: 1 bass 5 empty 1 flt 1 organ 1 soprn 1 tenor 2 violn
!!!ENC: Leszek Kubiak
!!!END: 2022-02-08
